X: 24304
T: Lost Time
R: reel
M: 4/4
K: Amajor
|:cA A/A/A BA A/A/A|cAcd e3d|cA A/A/A BA A/A/A|ABcd eaed|
cA A/A/A BA A/A/A|cAcd e3d|caec f3e|1 cA A/A/A A3B:|2 cA A/A/A ABce:|
|:dA A/A/A A2eA|A/A/A A2 fA A/A/A|A2gA A/A/A A2|agec Bcef|
dA A/A/A A2eA|A/A/A A2 fA A/A/A|A2gA A/A/A A2|agec Bcef:|


